X:1
T: Summer in Assynt
C:
R:Strathspey
Q: 128
K:C
M:4/4
L:1/16
|:G4|c4 c3d e4 e3g|a3g a2b2 c'4 a4|ge3 e4 ec3 c4|ed3 d8 G4|
c4 c3d e4 e2g2|a3g a2b2 d'2c'2 b2a2|ga3 a4 ed3 d4|c12 a4|
g4 g3d e4 c2e2|f3e f2g2 e2g2 a2c'2|bg3 g4 a^f3 f4|ag3 g8 a4|
g4 e3d cG3 G3G|A3G A2c2 e2d2 a2c'2|ge3 ec3 cA3 A2G2|Ac3 c3d c4:|
